X: 1
T: Leitrim Fancy, The
M: 4/4
L: 1/8
R: hornpipe
K: Dmaj
AG|:FAEA DEFG|A/B/A GB A2de|fdge agec|dBAF GBAG|
FAEA DEFG|A/B/A GB A2de|fdge agec|1Addc d2AG:|2Addc d2zg||
fefg afeg|fefg a2 e/f/g|agec dfec|dcAF G3e|fefg afeg|
fefg a2 e/f/g|agec dfec|Addc d2zg|fefg afeg|fefg a2 e/f/g|agec dfec|
 dcAF GBAG|FAEA DEFG|A/B/A GB A2de|fdge agec|Addc d2||
